images/Exercism_files/settings-f325518f0f05f6549f9585e2e89d694ba1686050.svg

<svg fill="none" height="18" viewBox="0 0 18 18" width="18" xmlns="http://www.w3.org/2000/svg"><g style="fill-rule:evenodd;clip-rule:evenodd;stroke:#000;stroke-width:1.5;stroke-linecap:round;stroke-linejoin:round"><path d="m8.03067 2.62535c.2474.27463.59969.43143.96933.43143s.72193-.1568.96933-.43143l.63067-.692c.3704-.4099.9586-.54243 1.469-.33095.5103.21148.8324.72122.8043 1.27295l-.0473.93333c-.0185.36819.1195.72703.38.98789s.6191.39942.9873.38145l.9334-.04734c.5513-.02718 1.0602.29524 1.2712.80538.2109.51014.0783 1.09781-.3312 1.46796l-.6947.62666c-.2743.24775-.4308.60006-.4308.96967 0 .3696.1565.72192.4308.96967l.6947.62668c.4099.3704.5424.9586.3309 1.469-.2115.5103-.7212.8324-1.2729.8043l-.9334-.0473c-.369-.019-.7288.1193-.99.3806-.2613.2613-.3996.621-.3806.99l.0473.9334c.0245.5488-.2972 1.0543-.8047 1.2646s-1.0923.0806-1.4633-.3246l-.62733-.694c-.24763-.2743-.59984-.4308-.96934-.4308s-.72171.1565-.96933.4308l-.63.694c-.3704.4071-.9563.5383-1.46497.3281-.50867-.2103-.8309-.7169-.8057-1.2668l.048-.9333c.01898-.369-.11932-.7288-.3806-.9901s-.62105-.3996-.99006-.3806l-.93334.0473c-.55151.0288-1.06146-.2926-1.27341-.8025-.21195-.51-.08003-1.0982.32941-1.4688l.694-.62665c.27428-.24775.43081-.60006.43081-.96967 0-.3696-.15653-.72192-.43081-.96966l-.694-.63c-.40807-.37017-.53979-.9567-.32918-1.46581s.71819-.83116 1.26852-.80486l.93333.04733c.36973.01944.73032-.11904.99199-.38097.26167-.26192.39981-.62265.38001-.99236l-.04467-.934c-.0258-.55009.29621-1.05725.80503-1.26789s1.09508-.07948 1.46564.32789z"/><path d="m9 12.0007c1.6569 0 3-1.3432 3-3.00003 0-1.65685-1.3431-3-3-3-1.65685 0-3 1.34315-3 3 0 1.65683 1.34315 3.00003 3 3.00003z"/></g></svg>

<svg width="18" height="18" viewBox="0 0 18 18" fill="none" xmlns="http://www.w3.org/2000/svg">
<path fill-rule="evenodd" clip-rule="evenodd" d="M8.03067 2.62535C8.27807 2.89998 8.63036 3.05678 9 3.05678C9.36964 3.05678 9.72193 2.89998 9.96933 2.62535L10.6 1.93335C10.9704 1.52345 11.5586 1.39092 12.069 1.6024C12.5793 1.81388 12.9014 2.32362 12.8733 2.87535L12.826 3.80868C12.8075 4.17687 12.9455 4.53571 13.206 4.79657C13.4665 5.05743 13.8251 5.19599 14.1933 5.17802L15.1267 5.13068C15.678 5.1035 16.1869 5.42592 16.3979 5.93606C16.6088 6.4462 16.4762 7.03387 16.0667 7.40402L15.372 8.03068C15.0977 8.27843 14.9412 8.63074 14.9412 9.00035C14.9412 9.36995 15.0977 9.72227 15.372 9.97002L16.0667 10.5967C16.4766 10.9671 16.6091 11.5553 16.3976 12.0657C16.1861 12.576 15.6764 12.8981 15.1247 12.87L14.1913 12.8227C13.8223 12.8037 13.4625 12.942 13.2013 13.2033C12.94 13.4646 12.8017 13.8243 12.8207 14.1933L12.868 15.1267C12.8925 15.6755 12.5708 16.181 12.0633 16.3913C11.5558 16.6016 10.971 16.4719 10.6 16.0667L9.97267 15.3727C9.72504 15.0984 9.37283 14.9419 9.00333 14.9419C8.63383 14.9419 8.28162 15.0984 8.034 15.3727L7.404 16.0667C7.0336 16.4738 6.4477 16.605 5.93903 16.3948C5.43036 16.1845 5.10813 15.6779 5.13333 15.128L5.18133 14.1947C5.20031 13.8257 5.06201 13.4659 4.80073 13.2046C4.53945 12.9433 4.17968 12.805 3.81067 12.824L2.87733 12.8713C2.32582 12.9001 1.81587 12.5787 1.60392 12.0688C1.39197 11.5588 1.52389 10.9706 1.93333 10.6L2.62733 9.97335C2.90161 9.7256 3.05814 9.37329 3.05814 9.00368C3.05814 8.63408 2.90161 8.28176 2.62733 8.03402L1.93333 7.40402C1.52526 7.03385 1.39354 6.44732 1.60415 5.93821C1.81476 5.4291 2.32234 5.10705 2.87267 5.13335L3.806 5.18068C4.17573 5.20012 4.53632 5.06164 4.79799 4.79971C5.05966 4.53779 5.1978 4.17706 5.178 3.80735L5.13333 2.87335C5.10753 2.32326 5.42954 1.8161 5.93836 1.60546C6.44718 1.39482 7.03344 1.52598 7.404 1.93335L8.03067 2.62535Z" stroke="#000000" stroke-width="1.5" stroke-linecap="round" stroke-linejoin="round"/>
<path fill-rule="evenodd" clip-rule="evenodd" d="M9 12.0007C10.6569 12.0007 12 10.6575 12 9.00067C12 7.34382 10.6569 6.00067 9 6.00067C7.34315 6.00067 6 7.34382 6 9.00067C6 10.6575 7.34315 12.0007 9 12.0007Z" stroke="#000000" stroke-width="1.5" stroke-linecap="round" stroke-linejoin="round"/>
</svg>
